X:1
T:Fifteen Miles From Birmingham
M:4/4
L:1/8
K:F
 CA, C| F4- FA cA/2-G/2| F4- FC D/2 F3/2| F4- FD B,/2 D3/2| z z2| z AA A A2 z2|\
 z AA A c2 z2| z d d/2 d3/2 dB B/2 B3/2| C4- CA
M:4/4
| A3/2 G/2 G3/2 E/2 E3/2 C/2 C3/2 C/2| DFA/2-G/2 FA f- f2-| f6 z2|\
 z4 z CD F| A4- Ac
M:4/4
| c3/2 B/2 B3/2 B/2 B3/2 B/2 B3/2 B/2| AAc/2-B/2 Ac a- a2-| a6 z2|\
 z4 z AB c|A/2-G/2 F F6-| F2 z4 z||c/2-B/2 A A6-| A2 z4 z z|
